!!!!SEGMENT: pl-wtm--r-326-m_moniuszko-stanislaw--wznos-sie-duszo-nad-gwar-ziemi.krn
!!!cenid: 18xx:2851
!!!COM: Moniuszko, Stanisław
!!!COM-rismID: pe30008351
!!!CDT: 1819/05/05-1872/06/04
!!!CNT: Polish
!!!OTL: Wznoś się duszo nad gwar ziemi
!!!PDT:
!!!AGN:
!!!YEC: Copyright 2022 Narodowy Instytut Fryderyka Chopina (https://polishscores.org)
!!!YEM: License CC-BY-4.0 (https://creativecommons.org/licenses/by/4.0)
!!!SMS-siglum: PL-Wtm
!!!SMS-shelfmark: R 326/M
!!!SMS-shelfwork: W
!!!SMS-variant:
!!!SMS-altvar:
!!!NIFC-rismSourceID: 1001146906
!!!NIFC-rismChildID: 1001146906
!!!NIFC-islandoraID:
!!!URL-pdf-islandora:
!!!URL-scan:
!!!IIIF:
!!!ONB-nifc: UWAGA: obsada: Coro S, Coro A, Coro T, Coro B, cor (2), trb (2)
!!!AIN: 1 alto 1 cor 2 empty 1 soprn 1 tenor 1 tromt
!!!key:
**kern	**dynam	**kern	**dynam	**kern	**dynam	**kern	**text	**dynam	**kern	**text	**dynam	**kern	**text	**dynam	**kern	**text	**dynam
*part7	*	*part6	*	*part5	*	*part4	*	*	*part3	*	*	*part2	*	*	*part1	*	*
*staff7	*	*staff6	*	*staff5	*	*staff4	*	*	*staff3	*	*	*staff2	*	*	*staff1	*	*
*Iempty	*	*Itromt	*	*Icor	*	*Iempty	*	*	*Itenor	*	*	*Ialto	*	*	*Isoprn	*	*
*	*	*I"Tromboni.	*	*I"Corni in F.	*	*I"[Basso]	*	*	*I"[Tenore]	*	*	*I"[Alto]	*	*	*I"[Soprano]	*	*
*clefF4	*	*clefC4	*	*clefG2	*	*clefF4	*	*	*clefF4	*	*	*clefG2	*	*	*clefG2	*	*
*	*	*	*	*ITrd4c7	*	*	*	*	*	*	*	*	*	*	*	*	*
*	*	*	*	*	*	*k[b-e-]	*	*	*	*	*	*	*	*	*	*	*
*	*	*	*	*	*	*G:	*	*	*	*	*	*	*	*	*	*	*
*M6/8	*	*M6/8	*	*M6/8	*	*M6/8	*	*	*M6/8	*	*	*M6/8	*	*	*M6/8	*	*
*all\right	*	*all\right	*	*all\right	*	*all\right	*	*	*all\right	*	*	*all\right	*	*	*all\right	*	*
=1	=1	=1	=1	=1	=1	=1	=1	=1	=1	=1	=1	=1	=1	=1	=1	=1	=1
*	*	*2\right	*	*	*	*	*	*	*	*	*	*	*	*	*	*	*
!LO:SIC:v:o=2.BB;/	!	!LO:SIC:v:o=2.B;\	!	!	!	!	!	!	!	!	!	!	!	!	!LO:TX:t=P:problem=brak znaków przykluczowych	!	!
!LO:TX:t=P:problem=brak znaków przykluczowych	!LO:DY:rj	!LO:TX:t=P:problem=brak znaków przykluczowych	!LO:DY:rj	!LO:TX:t=P:problem=brak znaków przykluczowych	!LO:DY:rj	!	!	!	!LO:TX:t=P:problem=brak znaków przykluczowych	!	!	!LO:TX:t=P:problem=brak znaków przykluczowych	!	!	!LO:TX:a:i:t=Pieśń na pogrzep ś.p. I. F. Dobrzyńskiego	!	!
2.BB-;/	p	2.B-;\	p	2.d 2.F;/	p	2.r;	.	.	2.r;	.	.	2.r;	.	.	2.r;	.	.
=2	=2	=2	=2	=2	=2	=2	=2	=2	=2	=2	=2	=2	=2	=2	=2	=2	=2
*	*	*	*	*^	*	*	*	*	*	*	*	*	*	*	*	*	*
!LO:SIC:v:o=[4.BB/	!	!LO:SIC:v:o=[4.B\	!	!	!	!	!	!	!	!	!	!	!LO:SIC:v:o=4b\	!	!	!	!	!
[4.BB-/	.	[4.B-\	.	[4.d/	4.F\	.	4BB-/	.	.	4F\	.	.	4b-\	2. Ten	.	4dd\	1. Wznoś	.
.	.	.	.	.	.	.	8BB-/	.	.	8D\	.	.	8a\	co	.	8cc\	się	.
!LO:SIC:v:o=4BB/]	!	!LO:SIC:v:o=4B\]	!	!	!	!	!	!	!	!	!	!	!LO:SIC:v:o=4b\	!	!	!	!	!
4BB-/]	.	4.B-\]	.	4d/]	(>4G\	.	4BB-/	.	.	4G\	.	.	4b-\	cier-	.	4dd\	du-	.
!	!	!	!	!	!	!	!	!	!	!	!	!	!LO:SIC:v:o=8b\	!	!	!	!	!
8r	.	8r	.	8r	8F\)	.	8BB-/	.	.	8F\	.	.	8b-\	-piał	.	8dd\	-szo	.
=3	=3	=3	=3	=3	=3	=3	=3	=3	=3	=3	=3	=3	=3	=3	=3	=3	=3	=3
!LO:SIC:v:o=[4.BB/	!	!LO:SIC:v:o=[4.B\	!	!	!	!	!	!	!	!	!	!	!LO:SIC:v:o=8b\L	!	!	!	!	!
[4.BB-/	.	[4.B-\	.	[4.d/	4.F\	.	4BB-/	.	.	4F\	.	.	8b-\L	na	.	4dd\	nad	.
.	.	.	.	.	.	.	.	.	.	.	.	.	8a\J	.	.	.	.	.
.	.	.	.	.	.	.	8BB-/	.	.	8D\	.	.	8a\	tym	.	8cc\	gwar	.
!LO:SIC:v:o=4BB/]	!	!LO:SIC:v:o=4B\]	!	!	!	!	!	!	!	!	!	!	!LO:SIC:v:o=4b\	!	!	!	!	!
4BB-/]	.	4.B-\]	.	4d/]	4G\	.	4BB-/	.	.	4G\	.	.	4b-\	świe-	.	4cc\	zie-	.
!	!	!	!	!	!	!	!	!	!	!	!	!	!LO:SIC:v:o=8b\	!	!	!	!	!
8r	.	8r	.	8r	8F\	.	8BB-/	.	.	8F\	.	.	8b-\	-cie	.	8cc\	-mi	.
=4	=4	=4	=4	=4	=4	=4	=4	=4	=4	=4	=4	=4	=4	=4	=4	=4	=4	=4
!LO:SIC:v:o=4BB/	!	!	!	!	!LO:SIC:v:o=8B\L	!	!	!	!	!	!	!	!LO:SIC:v:o=8b\L	!	!	!	!	!
4BB-/	.	4F/	.	8d/L	8B-\L	.	4BB-/	.	.	4F\	.	.	8b-\L	wszel-	.	8dd\L	tam	.
!	!	!	!	!	!	!	!	!	!	!	!	!	!	!	!	!LO:SIC:v:o=8ee\J	!	!
.	.	.	.	8e-X/	8c\	.	.	.	.	.	.	.	8cc\J	.	.	8ee-\J	.	.
!LO:SIC:v:o=8BB/	!	!	!	!	!LO:SIC:v:o=8B\J	!	!	!	!	!	!	!	!LO:SIC:v:o=8b\	!	!	!	!	!
8BB-/	.	8F/	.	8d/J	8B-\J	.	8BB-/	.	.	8F\	.	.	8b-\	-kich	.	8dd\	gdzie	.
!LO:SIC:v:o=4.BB/	!	!	!	!	!LO:SIC:v:o=[4.B\	!	!	!	!	!	!	!	!	!	!	!	!	!
4.BB-/	.	4D/	.	4f/	[4.B-\	.	4BB-/	.	.	4D\	.	.	4a\	ży-	.	4ff\	już	.
!	!	!	!	!	!	!	!	!	!	!	!	!	!LO:SIC:v:o=8b\	!	!	!LO:SIC:v:o=8ee\	!	!
.	.	8G/	.	8e-X/	.	.	8BB-/	.	.	8G\	.	.	8b-\	-cia	.	8ee-\	nie-	.
*	*	*	*	*v	*v	*	*	*	*	*	*	*	*	*	*	*	*	*
=5	=5	=5	=5	=5	=5	=5	=5	=5	=5	=5	=5	=5	=5	=5	=5	=5	=5
!LO:SIC:v:o=4BB/	!	!	!	!LO:SIC:v:n=2:o=8dL 8B/]	!	!	!	!	!	!	!	!LO:SIC:v:o=8b/L	!	!	!	!	!
4BB-/	.	4F/	.	8B-/]	.	4BB-/	.	.	4F\	.	.	8b-/L	la-	.	8dd\L	-zna-	.
!	!	!	!	!LO:SIC:v:n=1:o=8B 8G/	!	!	!	!	!	!	!	!	!	!	!LO:SIC:v:o=8b\J	!	!
.	.	.	.	8B-	.	.	.	.	.	.	.	8g/J	.	.	8b-\J	.	.
8FF/	.	8F/	.	8cJ 8A/	.	8F\	.	.	8F\	.	.	8a/	-su	.	8cc\	-na	.
!LO:SIC:v:o=4BB/	!	!	!	!LO:SIC:v:n=2:o=4d 4B/	!	!	!	!	!	!	!	!LO:SIC:v:o=4.b;\	!	!	!	!	!
4BB-/	.	4F/	.	4B-/	.	4.BB-/	.	.	4.F;\	.	.	4.b-;\	zmian	.	4.dd;\	łza.	.
8r;	.	8r;	.	8r;	.	.	.	.	.	.	.	.	.	.	.	.	.
!!LO:LB:g=original
=6	=6	=6	=6	=6	=6	=6	=6	=6	=6	=6	=6	=6	=6	=6	=6	=6	=6
*	*	*	*	*^	*	*	*	*	*	*	*	*	*	*	*	*	*
!LO:SIC:v:o=[4.B [4.BB\	!	!LO:TX:t=P:problem=w taktach nr 6-9 puzony na wspólnej pięciolinii	!	!	!	!	!	!	!	!	!	!	!LO:SIC:v:o=4b/	!	!	!	!	!
[4.B- [4.BB-\	.	2.ryy	.	[4.d/	4.F\	.	4BB-/	.	.	4F\	.	.	4b-/	te-	.	4cc\	tam	.
!	!	!	!	!	!	!	!	!	!	!	!	!	!LO:SIC:v:o=8b/	!	!	!	!	!
.	.	.	.	.	.	.	8BB-/	.	.	8D\	.	.	8b-/	-mu	.	8dd\	gdzie	.
!LO:SIC:v:o=4B] 4BB\]	!	!	!	!	!	!	!	!	!	!	!	!	!LO:SIC:v:o=4b/	!	!	!	!	!
4B-] 4BB-\]	.	.	.	4d/]	4G\	.	4BB-/	.	.	4G\	.	.	4b-/	nie-	.	4dd\	zno-	.
!	!	!	!	!	!	!	!	!	!	!	!	!	!LO:SIC:v:o=8b/	!	!	!	!	!
8r	.	.	.	8r	8F\	.	8BB-/	.	.	8F\	.	.	8b-/	-bo	.	8dd\	-je	.
=7	=7	=7	=7	=7	=7	=7	=7	=7	=7	=7	=7	=7	=7	=7	=7	=7	=7	=7
!LO:SIC:v:o=[4.B [4.BB\	!	!	!	!	!	!	!	!	!	!	!	!	!LO:SIC:v:o=4b/	!	!	!	!	!
[4.B- [4.BB-\	.	2.ryy	.	[4.d/	4F\	.	4BB-/	.	.	8F\L	.	.	4b-/	wie-	.	4dd\	spła-	.
.	.	.	.	.	.	.	.	.	.	8D\J	.	.	.	.	.	.	.	.
!	!	!	!	!	!LO:SIC:v:o=8B\	!	!	!	!	!LO:SIC:v:o=8B\	!	!	!LO:SIC:v:o=8b/	!	!	!LO:SIC:v:o=8b\	!	!
.	.	.	.	.	8B-\	.	8BB-/	.	.	8B-\	.	.	8b-/	-niec	.	8b-\	-co-	.
!LO:SIC:v:o=4B] 4BB\]	!	!	!	!	!	!	!	!	!	!	!	!	!LO:SIC:v:o=4b/	!	!	!	!	!
4B-] 4BB-\]	.	.	.	4d/]	4F\	.	4BB-/	.	.	4F\	.	.	4b-/	sple-	.	4dd\	-ne-	.
!	!	!	!	!	!	!	!	!	!	!	!	!	!LO:SIC:v:o=8b/	!	!	!	!	!
8r	.	.	.	8r	8ryy	.	8BB-/	.	.	8F\	.	.	8b-/	-cie	.	8dd\	-mi	.
*	*	*	*	*v	*v	*	*	*	*	*	*	*	*	*	*	*	*	*
=8	=8	=8	=8	=8	=8	=8	=8	=8	=8	=8	=8	=8	=8	=8	=8	=8	=8
*^	*	*	*	*	*	*	*	*	*	*	*	*	*	*	*	*	*
!	!LO:SIC:v:o=4BB\	!	!	!	!LO:SIC:v:n=2:o=8dL 8B/	!	!	!	!LO:HP:a	!	!	!LO:HP:a	!LO:SIC:v:o=8b/L	!	!LO:HP:a	!	!	!LO:HP:a
[4.F/	4BB-\	.	2.ryy	.	8B-/	.	4BB-/	.	<	4F\	.	<	8b-/L	świa-	<	8dd\L	Pa-	<
.	.	.	.	.	8c 8A/	.	.	.	.	.	.	.	8a/J	.	.	8cc\J	.	.
!	!LO:SIC:v:o=8BB\	!	!	!	!LO:SIC:v:n=2:o=8dJ 8B/	!	!	!	!	!	!	!	!LO:SIC:v:o=8b/	!	!	!	!	!
.	8BB-\	.	.	.	8B-/	.	8BB-/	.	[	8F\	.	[	8b-/	-ta	[	8dd\	-lec	.
.	.	.	.	.	.	.	.	.	.	.	.	.	.	.	.	.	.	[
!	!LO:SIC:v:o=4BB\	!	!	!	!	!	!	!	!LO:HP:a	!	!	!LO:HP:a	!	!	!LO:HP:a	!	!	!LO:HP:a
(<4F/]	4BB-\	.	.	.	4f 4d/	.	4BB-/	.	>	4F\	.	>	4dd/	go	>	4ff\	twór-	>
!	!	!	!	!	!	!	!	!	!	!	!	!	!	!	!	!LO:SIC:v:o=8ee\	!	!
8G-X/)	8ryy	.	.	.	8e-X 8c/	.	8BB-/	.	]	8G-X\	.	]	8cc/	na-	]]	8ee-\	-cy	]]
=9	=9	=9	=9	=9	=9	=9	=9	=9	=9	=9	=9	=9	=9	=9	=9	=9	=9	=9
!	!	!	!	!	!LO:SIC:v:n=2:o=(8dL 8B/	!	!	!	!LO:DY:a:rj	!	!	!LO:DY:a:rj	!LO:SIC:v:o=8b/L	!	!LO:DY:a:rj	!	!	!LO:DY:a:rj
8F 8FF/L	4.FF\	.	2.ryy	.	8B-/	.	4F\	.	p	8F\L	.	p	8b-/L	-gro-	p	8dd\L	wie-	p
!LO:SIC:v:o=8E/J	!	!	!	!	!	!	!	!	!	!LO:SIC:v:o=8E\J	!	!	!	!	!	!	!	!
8E-/J	.	.	.	.	8c 8A/	.	.	.	.	8E-\J	.	.	8a/J	.	.	8cc\J	.	.
!	!	!	!	!	!LO:SIC:v:o=8B/J)	!	!	!	!	!	!	!	!LO:SIC:v:o=8b/	!	!	!LO:SIC:v:o=8b\	!	!
8D/	.	.	.	.	8B-/J)	.	8F 8FF/	.	.	8D\	.	.	8b-/	-dzi	.	8b-\	-cznie	.
!	!LO:SIC:v:o=4.BB\	!	!	!	!LO:SIC:v:n=2:o=4.d 4.B;/	!	!	!	!	!	!	!	!LO:SIC:v:o=4.b;/	!	!	!	!	!
4.F;/	4.BB-\	.	.	.	4.B-;/	.	4.BB-/	.	.	4.F;\	.	.	4.b-;/	Pan.	.	4.dd;\	trwa.	.
*v	*v	*	*	*	*	*	*	*	*	*	*	*	*	*	*	*	*	*
!!LO:LB:g=original
=10	=10	=10	=10	=10	=10	=10	=10	=10	=10	=10	=10	=10	=10	=10	=10	=10	=10
*	*	*	*	*^	*	*	*	*	*	*	*	*	*	*	*	*	*
*	*	*	*	*2\right	*	*	*	*	*	*	*	*	*	*	*	*	*	*
!LO:SIC:v:o=4.B\	!	!	!LO:DY:rj	!	!	!	!	!	!	!LO:SIC:v:o=4B\	!	!LO:DY:a:rj	!	!	!LO:DY:a:rj	!	!	!LO:DY:a:rj
4.B-\	.	4d\	mf	(2.f/	2.f\	mf	2.r	.	.	4B-\	a	mf	4dd\	.	mf	4ff\	Mę-	mf
!	!	!	!	!	!	!	!	!	!	!LO:SIC:v:o=8B\	!	!	!	!	!	!	!	!
.	.	8d-X\	.	.	.	.	.	.	.	8B-\	dłoń	.	8dd-X\	.	.	8ff\	-żu	.
4.A-X\	.	4.c\	.	.	.	.	.	.	.	4A-X\	ziom-	.	4cc\	.	.	4ff\	coś	.
.	.	.	.	.	.	.	.	.	.	8A-\	-ka	.	8cc\	.	.	8ff\	ta-	.
=11	=11	=11	=11	=11	=11	=11	=11	=11	=11	=11	=11	=11	=11	=11	=11	=11	=11	=11
!	!	!LO:SIC:v:o=[4.B\	!	!	!	!	!	!	!	!	!	!	!LO:SIC:v:o=4b\	!	!	!	!	!
4G-X\	.	[4.B-\	.	8f/L	8f\L	.	2.r	.	.	4G-X\	w póź-	.	4b-\	.	.	(8ff\L	-len-	.
.	.	.	.	8g-X/	8g-\	.	.	.	.	.	.	.	.	.	.	8gg-X\J	.	.
!	!	!	!	!	!	!	!	!	!	!	!	!	!LO:SIC:v:o=8b\	!	!	!	!	!
8r	.	.	.	8f/J	8f\J	.	.	.	.	8G-\	-ny	.	8b-\	.	.	8ff\)	-tu	.
!	!	!LO:SIC:v:o=4B\]	!	!	!	!	!	!	!	!	!	!LO:HP:a	!LO:SIC:v:o=4b\	!	!LO:HP:a	!LO:SIC:v:o=4ee\	!	!LO:HP:a
4G-\	.	4B-\]	>	4e-/	4e-X\	>	.	.	.	4G-\	czas	>	4b-\	.	>	4ee-\	skrą	>
!	!	!LO:SIC:v:o=8B\	!	!	!	!	!	!	!	!	!	!	!LO:SIC:v:o=8b\	!	!	!	!	!
8F\	.	8B-\	]	8d-X/)	8d-\	]	.	.	.	8F\	już	]	8b-\	.	]	8dd-X\	tu	]
=12	=12	=12	=12	=12	=12	=12	=12	=12	=12	=12	=12	=12	=12	=12	=12	=12	=12	=12
!	!	!LO:SIC:v:o=4.B\	!LO:DY:rj	!	!	!LO:DY:rj	!	!	!	!	!	!LO:DY:a:rj	!LO:SIC:v:o=4b\	!	!LO:DY:a:rj	!	!	!LO:DY:a:rj
4.En\	.	4.B-\	p	(8c/L	8c\L	p	2.r	.	.	4En\	i	p	4b-\	.	p	8cc\L	zdo-	p
!	!	!	!	!LO:SIC:v:o=8B/)	!LO:SIC:v:o=8B\	!	!	!	!	!	!	!	!	!	!	!LO:SIC:v:o=8b\J	!	!
.	.	.	.	8B-/)	8B-\	.	.	.	.	.	.	.	.	.	.	8b-\J	.	.
!	!	!	!	!	!	!	!	!	!	!	!	!	!LO:SIC:v:o=8b\	!	!	!	!	!
.	.	.	.	8c/J	8c\J	.	.	.	.	8E\	na	.	8b-\	.	.	8cc\	-był	.
!	!	!LO:SIC:v:o=4.B\	!	!	!	!	!	!	!	!	!	!	!LO:SIC:v:o=4b\	!	!	!	!	!
4.F\	.	4.B-\	.	4.d-X/	4.d-\	.	.	.	.	4F\	mchem	.	4b-\	.	.	4dd-X\	hołd	.
!	!	!	!	!	!	!	!	!	!	!	!	!	!LO:SIC:v:o=8b\	!	!	!	!	!
.	.	.	.	.	.	.	.	.	.	8F\	po-	.	8b-\	.	.	8dd-\	i	.
=13	=13	=13	=13	=13	=13	=13	=13	=13	=13	=13	=13	=13	=13	=13	=13	=13	=13	=13
!	!	!LO:SIC:v:o=[4.B\	!	!	!	!	!	!	!	!	!	!	!LO:SIC:v:o=4b\	!	!	!LO:SIC:v:o=8ee\L	!	!
(8G-X\L	.	[4.B-\	.	8e-/L	8e-X\L	.	2.r	.	.	8G-X\L	-ro-	.	4b-\	.	.	8ee-\L	chwa-	.
8F\	.	.	.	8d-X/	8d-\	.	.	.	.	8F\J	.	.	.	.	.	8dd-X\J	.	.
!LO:SIC:v:o=8E\J	!	!	!	!	!	!	!	!	!	!LO:SIC:v:o=8E\	!	!	!LO:SIC:v:o=8b\	!	!	!LO:SIC:v:o=8ee\	!	!
8E-\J	.	.	.	8e-/J	8e-\J	.	.	.	.	8E-\	-sły	.	8b-\	.	.	8ee-\	-łę	.
!	!	!LO:SIC:v:o=8B\L]	!	!	!	!	!	!	!	!	!	!	!LO:SIC:v:o=4.b\	!	!	!	!	!
8D-X\)	.	8B-\L]	.	4.f/	4.f\	.	.	.	.	(8D-X\L	głaz	.	4.b-\	.	.	4.ff\	swą	.
8r	.	8F\	.	.	.	.	.	.	.	8F\J)	.	.	.	.	.	.	.	.
!	!	!LO:SIC:v:o=8B\J	!	!	!	!	!	!	!	!LO:SIC:v:o=8B\	!	!	!	!	!	!	!	!
8r	.	8B-\J	.	.	.	.	.	.	.	9B-\	.	.	.	.	.	.	.	.
!!LO:PB:g=original
=14	=14	=14	=14	=14	=14	=14	=14	=14	=14	=14	=14	=14	=14	=14	=14	=14	=14	=14
!LO:SIC:v:o=(4.BB/	!	!	!	!	!LO:SIC:v:o=2.B\	!	!	!	!LO:HP:a	!	!	!	!LO:SIC:v:o=4b\	!	!	!	!	!
4.BB-/	.	4.d-X\	.	2.f/	2.B-\	.	4B-\	.	<	4d-X\	jesz-	.	4b-\	.	.	4ff\	po-	.
!	!	!	!	!	!	!	!	!	!	!LO:SIC:v:o=8B\	!	!LO:HP:a	!	!	!LO:HP:a	!	!	!LO:HP:a
.	.	.	.	.	.	.	8B-\	.	.	8B-\	-cze	<	8dd-X\	.	<	8dd-X\	-kój	<
!	!	!	!	!	!	!	!	!	!	!LO:SIC:v:o=4B\	!	!	!	!	!	!	!	!
4.AA-X/	.	4.d-\	.	.	.	.	4A-X\	.	.	4B-\	wdzie-	.	4dd-\	.	.	4ff\	Ci	.
!	!	!	!	!	!	!	!	!	!	!LO:SIC:v:o=8B\	!	!	!	!	!	!	!	!
.	.	.	.	.	.	.	8A-\	.	[[	8B-\	-czna	[[	8cc\	.	[[	8ff\	na	[[
=15	=15	=15	=15	=15	=15	=15	=15	=15	=15	=15	=15	=15	=15	=15	=15	=15	=15	=15
!	!	!LO:SIC:v:o=[4.B\	!	!	!	!	!	!	!LO:HP:a	!LO:SIC:v:o=4B\	!	!LO:HP:a	!	!	!LO:HP:a	!	!	!LO:HP:a
4.GG-X/)	.	[4.B-\	.	(8a-X/L	4d\	.	4G-X\	.	>	4B-\	kwia-	>	4dd-X\	.	>	8aa-X\L	wie-	>
.	.	.	.	8g-X/	.	.	.	.	.	.	.	.	.	.	.	8gg-X\J	.	.
!	!	!	!	!	!	!	!	!	!	!LO:SIC:v:o=8B\	!	!	!	!	!	!	!	!
.	.	.	.	8f/J)	8d\	.	8G-\	.	.	8B-\	-ty	.	8cc\	.	.	8ff\	-ki	.
!	!	!LO:SIC:v:o=4B\]	!	!	!LO:SIC:v:o=[4.B\	!	!	!	!	!LO:SIC:v:o=4B\	!	!	!LO:SIC:v:o=4b/	!	!	!LO:SIC:v:o=4ee\	!	!
4G-X\	.	4B-\]	.	4e-X/	[4.B-\	.	4G-\	.	.	4B-\	rzu-	]	4b-/	.	]	4ee-\	w gro-	]
!	!	!	!	!	!	!	!	!	!	!LO:SIC:v:o=8B\	!	!	!LO:SIC:v:o=8b/	!	!	!	!	!
8F\	.	8r	.	8d-X/	.	.	8F\	.	]	8B-\	-ci	.	8b-/	.	.	8dd-X\	-bie	.
=16	=16	=16	=16	=16	=16	=16	=16	=16	=16	=16	=16	=16	=16	=16	=16	=16	=16	=16
!	!	!	!	!	!LO:SIC:v:o=8B\L]	!	!	!	!LO:HP:a	!LO:SIC:v:o=8B\L	!	!LO:HP:a	!LO:SIC:v:o=8b/L	!	!LO:HP:a	!	!	!LO:HP:a
4.En\	.	2.r	.	8c/	8B-\L]	.	4En\	.	<	8B-\L	te-	<	8b-/L	.	<	4cc\	nie-	<
.	.	.	.	8r	8A\	.	.	.	.	8A\J	.	.	8a/J	.	.	.	.	.
!	!	!	!	!	!LO:SIC:v:o=8B\J	!	!	!	!	!LO:SIC:v:o=8B\	!	!	!LO:SIC:v:o=8b/	!	!	!	!	!
.	.	.	.	8c/	8B-\J	.	8E\	.	.	8B-\	-mu	.	8b-/	.	.	8cc\	-chaj	.
!	!	!	!	!	!	!	!	!	!	!LO:SIC:v:o=[4.B\	!	!	!LO:SIC:v:o=[4.b/	!	!	!	!	!
4ryy	.	.	.	4ryy	4ryy	.	4F\	.	.	[4.B-\	co	.	[4.b-/	.	.	4.dd-X\	cię	.
8ryy	.	.	.	8ryy	8ryy	.	8ryy	.	.	.	.	.	.	.	.	.	.	.
*	*	*	*	*v	*v	*	*	*	*	*	*	*	*	*	*	*	*	*
=17	=17	=17	=17	=17	=17	=17	=17	=17	=17	=17	=17	=17	=17	=17	=17	=17	=17
!	!	!	!	!	!	!LO:SIC:v:o=8A\L	!	!	!LO:SIC:v:o=8B\]	!	!	!LO:SIC:v:o=8b/]	!	!	!LO:SIC:v:o=4ee\	!	!
2.ryy	.	2.ryy	.	2.ryy	.	8G\L	.	.	8B-\]	.	.	8b-/]	.	.	4ee-\	przyj-	.
!	!	!	!	!	!	!	!	!	!LO:SIC:v:o=8B\	!	!	!LO:SIC:v:o=8b/	!	!	!	!	!
.	.	.	.	.	.	8G-X\J	.	[	8B-\	chlu-	[	8b-/	.	[	.	.	[
!	!	!	!	!	!	!	!	!	!LO:SIC:v:o=8B\	!	!	!LO:SIC:v:o=8b/	!	!	!	!	!
.	.	.	.	.	.	8F\	.	.	8B-\	-bą	.	8b-/	.	.	8ff\	mie	.
!	!	!	!	!	!	!	!	!LO:HP:a	!LO:SIC:v:o=4.B;\	!	!LO:HP:a	!LO:SIC:v:o=4.b;/	!	!LO:HP:a	!	!	!LO:HP:a
.	.	.	.	.	.	4.E-;\	.	>]	4.B-;\	był	>]	4.b-;/	.	>]	4.gg-X;\	Bóg!	>]
!!LO:LB:g=original
=18	=18	=18	=18	=18	=18	=18	=18	=18	=18	=18	=18	=18	=18	=18	=18	=18	=18
*^	*	*	*	*	*	*	*	*	*	*	*	*	*	*	*	*	*
*2\right	*	*	*	*	*	*	*	*	*	*	*	*	*	*	*	*	*	*
!	!LO:SIC:v:o=2.BB\	!	!LO:TX:t=P:problem=w taktach nr 18-22 puzony na wspólnej pięciolinii	!	!	!	!	!	!LO:DY:a:rj	!LO:SIC:v:o=4B\	!	!LO:DY:a:rj	!	!	!LO:DY:a:rj	!	!	!LO:DY:a:rj
4dn/	2.BB-\	.	2.ryy	.	4f 4F/	.	4BB-/	.	pp	4B-\	.	pp	4ddnX\	choć	pp	4ff\	nam	pp
!LO:SIC:v:o=8B/	!	!	!	!	!	!	!	!	!	!	!	!	!	!	!	!	!	!
8B-/	.	.	.	.	8d 8F/	.	8BB-/	.	.	8F\	.	.	8dd\	gro-	.	8dd\	zo-	.
!LO:SIC:v:o=4B/	!	!	!	!	!	!	!	!	!	!LO:SIC:v:o=4B\	!	!	!	!	!	!	!	!
4B-/	.	.	.	.	4g 4F/	.	4BB-/	.	.	4B-\	.	.	4dd\	-bo-	.	4gg\	-sta-	.
8d/	.	.	.	.	8f 8F/	.	8BB-/	.	.	8F\	.	.	8dd\	-wiec	.	8ff\	-nie	.
*v	*v	*	*	*	*	*	*	*	*	*	*	*	*	*	*	*	*	*
=19	=19	=19	=19	=19	=19	=19	=19	=19	=19	=19	=19	=19	=19	=19	=19	=19	=19
*	*	*	*	*rep	*	*	*	*	*	*	*	*	*	*	*	*	*
!LO:N:vis=2	!	!	!	!	!	!	!	!	!LO:SIC:v:o=4B\	!	!	!	!	!	!	!	!
!LO:SIC:v:o=2.BB\	!	!	!	!	!	!	!	!	!	!	!	!	!	!	!	!	!
2.BB-\	.	2.ryy	.	4f 4F/	.	4BB-/	.	.	4B-\	.	.	4dd\	go	.	4ff\	żal	.
.	.	.	.	8d 8F/	.	8BB-/	.	.	8F\	.	.	8dd\	nie	.	8dd\	po	.
!	!	!	!	!	!	!	!	!	!LO:SIC:v:o=4B\	!	!	!	!	!	!	!	!
.	.	.	.	4g 4F/	.	4BB-/	.	.	4B-\	.	.	4dd\	wró-	.	4gg\	to-	.
!	!	!	!	!	!	!	!	!	!	!	!	!LO:SIC:v:n=2:o=8dd 8b\	!	!	!	!	!
.	.	.	.	8f 8F/	.	8BB-/	.	.	8F\	.	.	8b-\	-ci	.	8ff\	-bie	.
*	*	*	*	*Xrep	*	*	*	*	*	*	*	*	*	*	*	*	*
=20	=20	=20	=20	=20	=20	=20	=20	=20	=20	=20	=20	=20	=20	=20	=20	=20	=20
*	*	*	*	*^	*	*	*	*	*	*	*	*^	*	*	*^	*	*
!	!	!	!	!	!	!	!	!	!	!	!	!	!	!	!	!	!LO:SIC:v:n=2:o=4ff 4ee\	!	!	!
2.FF/	.	2.ryy	.	4f 4A/	4ryy	.	4F 4FF/	.	.	4F\	.	.	4cc 4a\	4ryy	w ser-	.	4ee-\	4ryy	i	.
!	!	!	!	!	!	!	!	!	!	!	!	!	!	!	!	!	!LO:SIC:v:n=2:o=8ff 8ee\	!	!	!
.	.	.	.	8f 8A/	8ryy	.	8F 8FF/	.	.	8F\	.	.	8cc 8a\	8ryy	-cach	.	8ee-\	8ryy	wdzię-	.
!	!	!	!	!	!	!	!	!	!	!	!	!	!	!	!	!	!	!LO:SIC:v:n=2:o=4ff 4ee\	!	!
.	.	.	.	8a/L	4c\	.	4F 4FF/	.	.	4F\	.	.	4cc/	4cc\	bę-	.	8aa/L	4ee-\	-czno-	.
.	.	.	.	8g/J	.	.	.	.	.	.	.	.	.	.	.	.	8gg/J	.	.	.
!	!	!	!	!	!	!	!	!	!	!	!	!	!	!	!	!	!	!LO:SIC:v:o=8ee\	!	!
.	.	.	.	8f/	8e-X\	.	8F 8FF/	.	.	8F\	.	.	8cc/	8cc\	-dzie	.	8ff/	8ee-\	-ści	.
=21	=21	=21	=21	=21	=21	=21	=21	=21	=21	=21	=21	=21	=21	=21	=21	=21	=21	=21	=21	=21
*^	*	*	*	*	*	*	*	*	*	*	*	*	*	*	*	*	*	*	*	*
*	*	*	*	*	*	*	*	*	*above	*	*	*	*	*2\right	*	*	*	*2\right	*	*	*
!	!LO:SIC:v:o=2.BB\	!	!	!	!	!	!	!	!	!	!	!	!	!	!	!	!	!	!LO:N:n=1:vis=2.	!	!
(8F/L	2.BB-\	.	2.ryy	.	8f 8d/	4ryy	.	4BB-/	wie-	.	8F\L	wie-	.	2.dd\	2.dd/	żal	.	2.ff/	(4.ff 4.dd\	dług	.
8G/)	.	.	.	.	8r	.	.	.	.	.	8G\J	.	.	.	.	.	.	.	.	.	.
8A|/J	.	.	.	.	8f 8d/	8ryy	.	8BB-/	-czny	.	8A\	-czny	.	.	.	.	.	.	.	.	.
!LO:SIC:v:o=(8B/L	!	!	!	!	!	!	!	!	!	!	!LO:SIC:v:o=8B\L	!	!	!	!	!	!	!	!	!	!
(8B-/L	.	.	.	.	4f 4d/	4ryy	.	4.BB-/	.	.	8B-\L	dług.	.	.	.	.	.	.	4ff\)	.	.
8A/)	.	.	.	.	.	.	.	.	.	.	8A\J	.	.	.	.	.	.	.	.	.	.
8G/J	.	.	.	.	8d/	8d\	.	.	.	.	8G\	.	.	.	.	.	.	.	8ryy	.	.
*	*	*	*	*	*	*	*	*	*	*	*	*	*	*v	*v	*	*	*	*	*	*
*	*	*	*	*	*v	*v	*	*	*	*	*	*	*	*	*	*	*v	*v	*	*
=22	=22	=22	=22	=22	=22	=22	=22	=22	=22	=22	=22	=22	=22	=22	=22	=22	=22	=22
!	!LO:SIC:v:o=2.BB\	!	!	!	!	!	!	!	!	!	!	!	!	!	!	!	!	!
4F/	2.BB-\	.	2.ryy	.	4f 4d 4F/	.	4BB-/	.	.	4F\	.	.	4dd\	choć	.	4ff\	nam	.
!LO:SIC:v:o=8B/	!	!	!	!	!	!	!	!	!	!	!	!	!	!	!	!	!	!
8B-/	.	.	.	.	8d 8F/	.	8BB-/	.	.	8F\	.	.	8dd\	gro-	.	8dd\	zo-	.
!LO:SIC:v:o=4B/	!	!	!	!	!	!	!	!	!	!LO:SIC:v:o=4B\	!	!	!	!	!	!	!	!
4B-/	.	.	.	.	4g 4F/	.	4BB-/	.	.	4B-\	.	.	4dd\	-bo-	.	4gg\	-sta-	.
8d/	.	.	.	.	8f 8F/	.	8BB-/	.	.	8F\	.	.	8dd\	-wiec	.	8ff\	-nie	.
*v	*v	*	*	*	*	*	*	*	*	*	*	*	*	*	*	*	*	*
!!LO:LB:g=original
=23	=23	=23	=23	=23	=23	=23	=23	=23	=23	=23	=23	=23	=23	=23	=23	=23	=23
*	*	*	*	*^	*	*	*	*	*	*	*	*	*	*	*	*	*
!LO:SIC:v:o=4BB/	!	!	!	!LO:SIC:v:n=2:o=4f 4B/	!	!	!	!	!	!	!	!	!	!	!	!	!	!
4BB-/	.	4d\	.	4B-/	4ryy	.	4BB-/	.	.	4F\	.	.	4dd\	go	.	4ff\	żal	.
!	!	!LO:SIC:v:o=8B\	!	!	!	!	!	!	!	!LO:SIC:v:o=8B\	!	!	!	!	!	!	!	!
8r	.	8B-\	.	8d/	8d\	.	8F\	.	.	8B-\	.	.	8dd\	nie	.	8dd\	po	.
!	!	!	!	!	!	!	!	!	!	!	!	!	!LO:SIC:v:o=8ee\L	!	!	!	!	!
4F\	.	(8A\L	.	(8gL 8e-X\	4ryy	.	8F\L	.	.	8A\L	.	.	8ee-\L	wró-	.	8gg\L	to-	.
!	!	!LO:SIC:v:o=8B\)	!	!	!	!	!	!	!	!LO:SIC:v:o=8B\J	!	!	!	!	!	!	!	!
.	.	8B-\)	.	8f 8d\)	.	.	8G\J	.	.	8B-\J	.	.	8dd\J	.	.	8ff\J	.	.
!	!	!	!	!	!	!	!	!	!	!	!	!	!	!	!	!LO:SIC:v:o=8ee\	!	!
8r	.	8c\J	.	8e-XJ 8c\	8ryy	.	8A\	.	.	8c\	.	.	8cc\	-ci	.	8ee-\	-bie	.
=24	=24	=24	=24	=24	=24	=24	=24	=24	=24	=24	=24	=24	=24	=24	=24	=24	=24	=24
!LO:SIC:v:o=4.BB/	!	!	!	!LO:SIC:v:n=2:o=4d 4B/	!	!	!	!	!	!LO:SIC:v:o=4B\	!	!	!	!	!	!	!	!
4.BB-/	.	4d\	.	4B-/	4ryy	.	4B-\	.	.	4B-\	.	.	4dd\	w ser-	.	4dd\	wdzięcz-	.
!	!	!	!	!LO:SIC:v:o=8B/	!LO:SIC:v:o=8B\	!	!	!	!	!LO:SIC:v:o=8B\	!	!	!	!	!	!	!	!
.	.	8d\	.	8B-/	8B-\	.	8B-\	.	.	8B-\	.	.	8dd\	-cach	.	8dd\	-nych	.
!	!	!	!	!LO:SIC:v:o=4.b/;	!	!	!	!	!	!LO:SIC:v:o=4.B;\	!	!	!	!	!	!LO:TX:t=P:problem=skreślone takty [2]	!	!
4.EEn;/	.	4d-X;\	.	4.b-/	4.g\	.	4.En;\	.	.	4.B-;\	.	.	4.dd-X;\	on	.	4.gg;\	serc	.
.	.	8ryy	.	.	.	.	.	.	.	.	.	.	.	.	.	.	.	.
*	*	*	*	*v	*v	*	*	*	*	*	*	*	*	*	*	*	*	*
=25||	=25||	=25||	=25||	=25||	=25||	=25||	=25||	=25||	=25||	=25||	=25||	=25||	=25||	=25||	=25||	=25||	=25||
*M4/4	*	*M4/4	*	*M4/4	*	*M4/4	*	*	*M4/4	*	*	*M4/4	*	*	*M4/4	*	*
*met(c)	*	*met(c)	*	*met(c)	*	*met(c)	*	*	*met(c)	*	*	*met(c)	*	*	*met(c)	*	*
*	*	*	*	*^	*	*	*	*	*	*	*	*	*	*	*	*	*
4r	p	4r	p	4r	4ryy	p	4r	.	.	4r	.	.	4r	.	.	4r	.	.
*	*	*	*	*	*	*	*2\right	*	*	*2\right	*	*	*	*	*	*	*	*
2FF/	.	2F/	.	2f/	2A\	.	2F\	.	.	2A\	.	.	2cc\	bę-	.	2ff\	wie-	.
4FF/	.	4F/	.	4c/	4A\	.	4F\	.	.	4F\	.	.	4a/	-dzie	.	4cc\	-czny	.
*	*	*	*	*v	*v	*	*	*	*	*	*	*	*	*	*	*	*	*
=26	=26	=26	=26	=26	=26	=26	=26	=26	=26	=26	=26	=26	=26	=26	=26	=26	=26
!LO:SIC:v:o=1BB;	!	!	!	!LO:SIC:v:n=2:o=1d 1B;	!	!	!	!	!	!	!	!LO:SIC:v:o=1b	!	!	!	!	!
1BB-;	.	1F;	.	1B-;	.	1BB-	.	.	1F	.	.	1b-	żył.	.	1dd;	dług.	.
==	==	==	==	==	==	==	==	==	==	==	==	==	==	==	==	==	==
*-	*-	*-	*-	*-	*-	*-	*-	*-	*-	*-	*-	*-	*-	*-	*-	*-	*-
!!!system-decoration: ([s1,s2,s3,s4][s5][s6,s7])
!!!RDF**kern: > = above
!!!RDF**kern: < = below
!!!RDF**kern: | = vertical stroke
!!!RDF**dynam: pp = pp.
!!!ENC: Andrzej Kubiczek
!!!END: 2021-08-20
!!!ENC: Marcin Jachim
!!!END: 2021-08-03
